X: 11355
T: Earl Of Jura, The
R: waltz
M: 3/4
K: Eminor
|:B B>A|B2 E>G F>E|E3 E G>A|B2 AG A<B|g2 f>g eB|
d2 eA A>G|G3 A B>A|B2 EG F>E|E4 B>d|
e2 Bg f>g|e3 G B>d|e2 B2 A>G|F3 E G>A|
B2 AG A<B|g2 fg eB|d2 eA A>G|G3 B B>A|B2 E>G F>E|E3:|

